!! Aram Khachaturain, Sonatina (1959) for piano.
!! Second movement.
!! Andante con anima, rubato
!! Tempo: quarter-note equals 108 beats per minute.
**kern	**kern	**kern
*M3/4	*M3/4	*M3/4
*MM108	*MM108	*MM108
*a:	*a:	*a:
=1	=1	=1
{2.A	{2.e	4r
.	.	{4b 4cc
.	.	4a
=2	=2	=2
2.e	2.g	4a
.	.	2ee
=3	=3	=3
2.f	2.a	4dd
.	.	4ee
.	.	4cc
=4	=4	=4
2.g}	2.b}	4dd
.	.	2ee}
=5	=5	=5
{2.A	{2.e	4r
.	.	{4gg# 4aa
.	.	4ee
=6	=6	=6
2.f	2.b	4ggn 4aa-
.	.	2ee
=7	=7	=7
2.f#	2.a#	4dd
.	.	4ee
.	.	4cc
=8	=8	=8
2.g}	2.b}	4dd
.	.	2ee}
=8	=8	=8
4r	4r	{32dd
.	.	32ee
.	.	[16dd
.	.	8dd_
{4A	{4d	8dd]
.	.	8cc
4G	4e	4dd
=9	=9	=9
4A	4f	8dd
.	.	8gg
4B	4g	8ff
.	.	8ee
4c	4a	8dd
.	.	8cc
=10	=10	=10
4d	4b	2.ddT
4c	4a	.
4d	4b	.
=11	=11	=11
4e	4g	4.dd
2f}	2a}	.
.	.	8cc
.	.	4b}
=12	=12	=12
4r	4r	{32cc
.	.	32dd
.	.	[16cc
.	.	8cc_
{4E	{4c	8cc]
.	.	8b
4F	4d	4cc
=13	=13	=13
4G	4e	8cc
.	.	8ff
4A	4f	8ee
.	.	8dd
4B	4g	8cc
.	.	8b
=14	=14	=14
4c	4a	2.ccT
4B	4g	.
4c	4a	.
=15	=15	=15
4d	4f	4.cc
2e}	2g}	.
.	.	8b
.	.	4a}
=16	=16	=16
[2.e	[2.g	{4.b
.	.	8cc
.	.	4a
=17	=17	=17
2.e]	2.g]	4b
.	.	4cc
.	.	4a}
!! pochiss. accel.
=18	=18	=18
[2.d	[2.f#	{4.b
.	.	8cc
.	.	4a
=19	=19	=19
2.d]	2.f#]	4b
.	.	4cc
.	.	4a}
=20	=20	=20
[2.d-	[2.fn	{4.b-
.	.	8a
.	.	4b-
!! rit.
=21	=21	=21
8d-]	8f]	4ff
8r	8r	.
2d-	2f	4dd-
.	.	4b-}
!! a tempo
=22	=22	=22
2c	2e	2a
4dn	4f#	4a
=23	=23	=23
4B	4d	4a
2c	2e	2a
=24	=24	=24
2Fn	2B	2d
4E	4c	4e
=25	=25	=25
4G	4A	4c
2F#	2B	2d
*M4/4	*M4/4	*M4/4
=26	=26	=26
{4G#	1A	1c
4F#	.	.
4G#	.	.
4F#}	.	.
*M3/4	*M3/4	*M3/4
!! pochiss. accel.
=27	=27	=27
{4G#	[2.A	[2.c
4F#	.	.
4E	.	.
=28	=28	=28
4D	2.A]	2.c]
4C	.	.
4BB}	.	.
=29	=29	=29
{4E	[2.F	2.A-
4D	.	.
4E	.	.
=30	=30	=30
4D	2.F]	2.A-
4E	.	.
4D}	.	.
!! pochiss. accel.
=31	=31	=31
{4B	[2.c	[2.e-
4A	.	.
4B	.	.
=32	=32	=32
4A	2.c]	2.e-]
4B	.	.
4A}	.	.
!! page 9
!! a tempo
=33	=33	=33
{2.AA	2.r	.
.	.	{4b 4cc
.	.	4a
=34	=34	=34
2.e	2.g	4a
.	.	2ee
=35	=35	=35
2.f	2.a	4dd
.	.	4ee
.	.	4cc
=36	=36	=36
2.g}	2.b}	4dd
.	.	2ee}
=37	=37	=37
{2.A	{2.e	4r
.	.	{8gg# 8aa
.	.	8ee
.	.	8gg# 8aa
.	.	8ee
=38	=38	=38
2.f	2.b	8ggn' 8aa-'
.	.	8r
.	.	2ee
=39	=39	=39
2.f#	2.a#	4dd
.	.	4ee
.	.	4cc
=40	=40	=40
2.g}	2.b}	4dd
.	.	2ee}
=41	=41	=41
4r	4r	{32dd
.	.	32ee
.	.	[16dd
.	.	8dd_
{4F	{4d	8dd]
.	.	8cc
4G	4e	4dd
=42	=42	=42
4A	4f	8dd
.	.	8gg
4B	4g	8ff
.	.	8ee
4c	4a	8dd
.	.	8cc
=43	=43	=43
4d	4b	2.ddT
4c	4a	.
4d	4b	.
=44	=44	=44
4e	4g	4.dd
2f}	2a}	.
.	.	8cc
.	.	4b}
=44	=44	=44
4r	4r	{32cc
.	.	32dd
.	.	[16cc
.	.	8cc_
{4E	{4c	8cc]
.	.	8b
4F	4d	4cc
=45	=45	=45
4G	4e	8cc
.	.	8ff
4A	4f	8ee
.	.	8dd
4B	4g	8cc
.	.	8b
=46	=46	=46
4c	4a	2.ccT
4B	4g	.
4c	4a	.
=47	=47	=47
4d	4f	4.cc
2e}	2g}	.
.	.	8b
.	.	4a}
=48	=48	=48
4r	4r	{4.b
[2e-	[2g	.
.	.	8cc
.	.	4a
=49	=49	=49
2.e-]	2.g]	4b
.	.	4cc
.	.	4a}
=50	=50	=50
4r	4r	{4.b
[2d	[2f#	.
.	.	8cc
.	.	4a
=51	=51	=51
2.d]	2.f#]	4b
.	.	4cc
.	.	4a}
=52	=52	=52
4r	4r	{4.b-
[2d-	[2fn	.
.	.	8a
.	.	4b-
=53	=53	=53
2.d-]	2.f]	4ff
.	.	4dd-
.	.	4b-
=54	=54	=54
2c	2e	2a
4dn	4f#	4a
!! rit.
=55	=55	=55
4B	4d	4a
2c	2e	2a
!! poco piu mosso
=56	=56	=56
2.c	4r	4r
.	2g# 2bn	{4ggn
.	.	4ff
=57	=57	=57
2.c	2.gn 2.b-	32ee
.	.	32ff
.	.	[16ee
.	.	8ee]
.	.	4dd
.	.	4cc}
=58	=58	=58
{4.e	2.f#	2.a
8d	.	.
4c	.	.
=59	=59	=59
4d	2.fn	2.a-
2G}	.	.
=60	=60	=60
{4d	2.f	2.a-
2G}	.	.
=61	=61	=61
2.c	4r	{4gg
.	2g# 2bn	8gg
.	.	8aa-
.	.	8gg
.	.	8ff
=62	=62	=62
2.c	2.gn 2.b-	32ee
.	.	32ff
.	.	[16ee
.	.	8ee]
.	.	4dd
.	.	4cc}
=63	=63	=63
{4e	2.f#	2.a
8e	.	.
8d	.	.
8e	.	.
8c	.	.
=64	=64	=64
4d	2.fn	2.a-
2G}	.	.
=65	=65	=65
{4d	2.f	2.a-
2G}	.	.
=66	=66	=66
{4c	2.e-	2.g-
2Gn}	.	.
=67	=67	=67
{4c	2.e-	2.g-
2Gn}	.	.
=68	=68	=68
{4B	2.d	2.f
2G}	.	.
!! page 10
=69	=69	=69
{4A	2.c	2.e-
2G}	.	.
=70	=70	=70
{4A-	[2.B	[2.d
2G}	.	.
=71	=71	=71
{4A-	2.b]	2.d]
2G}	.	.
!! rit.
=72	=72	=72
4r	[2.G#	[2.d 2.en
{4F	.	.
4E	.	.
=73	=73	=73
32D	2.G#]	2.d 2.e]
32E	.	.
8.D	.	.
4C	.	.
4BB}	.	.
!! a tempo
=74	=74	=74
{2.AA	2.r	4r
.	.	{4b 4cc
.	.	4a
=75	=75	=75
2.e	2.g	4a
.	.	2ee
=76	=76	=76
2.f	2.a	4dd
.	.	4ee
.	.	4cc
=77	=77	=77
2.g	2.b	4dd
.	.	2ee}
=78	=78	=78
{2.A	{2.e	4r
.	.	{8gg# 8aa
.	.	8ee
.	.	8gg# 8aa
.	.	8ee
=79	=79	=79
2.f	2.b	4ggn 4aa-
.	.	2ee
=80	=80	=80
2.f#	2.a#	4dd
.	.	4ee
.	.	4cc
=81	=81	=81
2.g}	2.b}	4dd
.	.	2ee}
=82	=82	=82
4r	4r	{32dd
.	.	32ee
.	.	[8dd.
{4F	{4d	8dd]
.	.	8cc
4G	4e	4dd
=83	=83	=83
4A	4f	8dd
.	.	8gg
4B	4g	8ff
.	.	8ee
4c	4a	8dd
.	.	8cc
=84	=84	=84
4d	4b	2.ddT
4c	4a	.
4d	4b	.
=85	=85	=85
4e	4g	4.dd
2f}	2a}	.
.	.	8cc
.	.	4b}
=86	=86	=86
4r	4r	{32cc
.	.	32dd
.	.	[8.cc
{4E	{4c	8cc]
.	.	8b
4F	4d	4cc
=87	=87	=87
4G	4e	8cc
.	.	8ff
4A	4f	8ee
.	.	8dd
4B	4g	8cc
.	.	8b
=88	=88	=88
4c	4a	2.ccT
4B	4g	.
4c}	4a}	.
=89	=89	=89
4d	4f	4.cc
2e	2g	.
.	.	8b
.	.	4a}
=90	=90	=90
4r	4r	{4.b
[2e-	[2g	.
.	.	8cc
.	.	4a
=91	=91	=91
2.e-]	2.g]	4b
.	.	4cc
.	.	4a}
=92	=92	=92
4r	4r	{4.b
[2d	[2f#	.
.	.	8cc
.	.	4a
=93	=93	=93
2.d]	2.f#]	4b
.	.	4cc
.	.	4a}
=94	=94	=94
4r	4r	{4.b-
[2d-	[2fn	.
.	.	8a
.	.	4b-
=95	=95	=95
2.d-]	2.f]	4ff
.	.	4dd-
.	.	4b-}
!! ritard.
=96	=96	=96
2c	2e	2a
4d	4f#	4a
=97	=97	=97
4B	4d	4a
2c	2e	2a
!! Lento
!! non legato
=98	=98	=98
{4G	2A	2c
4F	.	.
4E	4B	4d
=99	=99	=99
4D	4G	4B
4C	2A	2c
4BB}	.	.
!! una corda
=100	=100	=100
[2.AA 2.E	4B 4d	2.r
.	[2c 2e	.
=101	=101	=101
2.AA 2.E_	2.c 2.e_	[2.f# 2.fff#
=102	=102	=102
4.AA 4.E_	4.c 4.e_	4.f# 4.fff#_
4r]	4r]	4r]
4r	4r	4r
====	====	====
*-	*-	*-
